packages/icon/src/svg/social-rss.icon.svg

<svg width="24" height="24" viewBox="0 0 24 24" fill="none" xmlns="http://www.w3.org/2000/svg">
<path fill-rule="evenodd" clip-rule="evenodd" d="M4 4.43994C12.5936 4.43994 19.56 11.4064 19.56 20H16.73C16.73 12.9694 11.0306 7.2699 4 7.2699V4.43994ZM6.17999 15.6399C7.38397 15.6399 8.35999 16.616 8.35999 17.8199C8.35999 18.9999 7.38 19.9999 6.17999 19.9999C5 19.9999 4 18.9999 4 17.8199C4 16.616 4.97601 15.6399 6.17999 15.6399ZM13.9 20C13.9 14.5323 9.46759 10.1 4 10.1V12.9299C5.87506 12.9299 7.67334 13.6748 8.99927 15.0007C10.3251 16.3267 11.07 18.1249 11.07 20H13.9Z" fill="white"/>
</svg>

<svg aria-label="social rss icon" viewBox="0 0 24 24"><path fill-rule="evenodd" clip-rule="evenodd" d="M4 4.44c8.594 0 15.56 6.966 15.56 15.56h-2.83c0-7.03-5.7-12.73-12.73-12.73V4.44zm2.18 11.2a2.18 2.18 0 012.18 2.18C8.36 19 7.38 20 6.18 20 5 20 4 19 4 17.82a2.18 2.18 0 012.18-2.18zM13.9 20c0-5.468-4.432-9.9-9.9-9.9v2.83A7.07 7.07 0 0111.07 20h2.83z"/></svg>
